X:1
T:He Set Me Free
T:Haldor Lillenas, 1909
T:He Set Me Free
T:Public Domain
T:Public Domain
C:Haldor Lillenas, 1909
Z:Public Domain
%%score ( 1 2 ) ( 3 4 )
L:1/8
M:4/4
K:Ab
V:1 treble 
V:2 treble 
V:3 bass 
V:4 bass 
V:1
 [CE]2 | [CE]3 [DF] [CE]2 [EA]2 | [FB]3 [DF] [FB]2 [FA][FA] | [EG]3 [EB] [DF]2 [DG]2 | %4
w: 1.~My|soul is filled with|joy and glad- ness Since|Je- sus came to|
w: 2.~The|Com- fort- er di-|vine is dwell- ing With-|in my soul to-|
w: 3.~The|grace of Je- sus|hath a- bound- ed For|all my sins I|
 [CE]6 [CE]2 | [CE]3 [DF] [CE]2 [EA]2 | [FB]3 [DF] [FB]2 [FA][FA] | [EG]3 [Gd] [Gc]2 [GB]2 | %8
w: me. His|love has ban- ished|all my sad- ness, From|sin I am set|
w: day; His|love to o- thers|I am tell- ing Since|Je- sus came to|
w: see, Sal-|va- tion walls have|me sur- round- ed, From|sin I am set|
 A4 z3/2 ||"^Refrain" E<=D E/ | (z3/2 G/ G>G [G_d]>)E =D>E | z3/2 E/ E>E [Ec]2 [Ec]>[Ed] | %12
w: free.||||
w: stay.|set me free,|* * * * He set me|* * * * I was|
w: free.||||
 [Ee]>[Ee] [Ec]>[EB] [=DA]>[DF] [EG]>[DA] | (D2 =D>D [EB]2) [Ec]>[E=d] | %14
w: ||
w: * but hal- le- lu- jah, now I|see! * * * I shall|
w: ||
 [Ee]>[Ee] [EA]>[EB] [Ec]2 | [Fd]>[Ec] | [FB]>[DF] [DF]>[DF] [=DB]2 [DB][FA] | %17
w: |||
w: for- get the day When|He washed|my sins a- way, And He set,|
w: |||
 [EG]2 [Ed]2 [Ec]2 [DB]2 | (C>C D>D [CA]2) |] %19
w: ||
w: He set me free.||
w: ||
V:2
 x2 | x8 | x8 | x8 | x8 | x8 | x8 | x8 | A4 x3/2 || x5/2 | =d4- x4 | c4- x4 | x8 | B4- x4 | x6 | %15
w: |||||||||||||||
w: ||||||||He||free,|blind,||ne’er||
 x2 | x8 | x8 | A4- x2 |] %19
w: ||||
w: ||||
V:3
 [A,,A,]2 | [A,,A,]3 [A,,A,] [A,,A,]2 [C,A,]2 | [D,A,]3 [D,A,] [D,D]2 [D,D][D,D] | %3
w: ~|~ ~ ~ ~|~ ~ ~ ~ ~|
 [E,D]3 [E,D] [E,G,]2 [E,B,]2 | [A,,A,]6 [A,,A,]2 | [A,,A,]3 [A,,A,] [A,,A,]2 [C,A,]2 | %6
w: ~ ~ ~ ~|~ ~|~ ~ ~ ~|
 [D,A,]3 [D,A,] [D,D]2 [D,D][D,D] | [E,D]3 [E,B,] [E,E]2 [E,D]2 | [A,,C]4 z3/2 || z/ z2 | %10
w: ~ ~ ~ ~ ~|~ ~ ~ ~|~||
 z3/2 [E,B,]/ [E,B,]>[E,B,] [E,B,]3/2 z/ z2 | z3/2 [A,,A,]/ [A,,A,]>[A,,A,] [A,,A,]2 A,>[A,B,] | %12
w: He set me free,|He set me free, ~ ~|
 [A,C]>[A,C] [A,,A,]>[B,,G,] [B,,F,]>[A,B,] [G,B,]>[F,B,] | %13
w: ~ ~ ~ ~ ~ ~ ~ ~|
 [E,G,]2 [F,A,]>[F,A,] [E,G,]2 A,>[A,B,] | [A,C]>[A,C] [A,C]>[G,B,] A,2 | [A,,A,]>[A,,A,] | %16
w: now I see, ~ ~ ~|~ ~ ~ ~ ~|~ ~|
 [D,A,]>[D,A,] [D,A,]>[D,A,] [B,,A,]2 [B,,F,][B,,B,] | [E,B,]2 [E,G,]2 [E,A,]2 [E,G,]2 | %18
w: ~ ~ ~ ~ ~ ~ ~|~ ~ He set|
 A,>E, F,>F, [A,,E,]2 |] %19
w: me~free * * * *|
V:4
 x2 | x8 | x8 | x8 | x8 | x8 | x8 | x8 | x11/2 || x5/2 | x8 | x6 A,3/2 x/ | x8 | x6 A,3/2 x/ | %14
w: |||||||||||~||~|
 x4 A,2 | x2 | x8 | x8 | A,,4- x2 |] %19
w: ~|||||

